lib/assets/icons/svg/outlined-action-newrequest.svg

<svg viewBox="0 0 24 24" xmlns="http://www.w3.org/2000/svg">
  <path  d="M 3.5 8.57 L 3.5 4.74 C 3.521 4.37 3.84 4.087 4.21 4.11 L 19.79 4.11 C 20.17 4.139 20.471 4.44 20.5 4.82 L 20.5 8.59 C 20.468 8.954 20.155 9.227 19.79 9.21 L 19.43 9.21 L 19.43 13.74 C 19.41 13.889 19.332 14.024 19.213 14.116 C 18.865 14.384 18.358 14.175 18.3 13.74 L 18.3 9.21 L 5.77 9.21 L 5.77 17.43 L 14.34 17.43 C 14.489 17.45 14.624 17.528 14.716 17.647 C 14.984 17.995 14.775 18.502 14.34 18.56 L 5.26 18.56 C 4.89 18.539 4.607 18.22 4.63 17.85 L 4.63 9.21 L 4.21 9.21 C 3.85 9.195 3.552 8.926 3.5 8.57 Z M 4.63 8.11 L 19.37 8.11 L 19.37 5.21 L 4.63 5.21 Z M 20.47 15.99 C 20.476 16.303 20.232 16.564 19.92 16.58 L 17.16 16.58 L 17.16 19.42 C 17.128 19.705 16.876 19.913 16.59 19.89 C 16.281 19.885 16.034 19.629 16.04 19.32 L 16.04 16.56 L 13.18 16.56 C 12.892 16.534 12.681 16.278 12.71 15.99 C 12.721 15.683 12.973 15.44 13.28 15.44 L 16.05 15.44 L 16.05 12.58 C 16.082 12.295 16.334 12.087 16.62 12.11 C 16.927 12.121 17.17 12.373 17.17 12.68 L 17.17 15.44 L 19.93 15.44 C 20.223 15.46 20.455 15.696 20.47 15.99 Z"/>
</svg>

<svg xmlns="http://www.w3.org/2000/svg" viewBox="0 0 24 24"><path d="M3.5 8.57V4.74a.67.67 0 0 1 .71-.63h15.58a.77.77 0 0 1 .71.71v3.77a.68.68 0 0 1-.71.62h-.36v4.53a.571.571 0 0 1-1.13 0V9.21H5.77v8.22h8.57a.571.571 0 0 1 0 1.13H5.26a.67.67 0 0 1-.63-.71V9.21h-.42a.749.749 0 0 1-.71-.64zm1.13-.46h14.74v-2.9H4.63zm15.84 7.88a.58.58 0 0 1-.55.59h-2.76v2.84a.53.53 0 0 1-.57.47.56.56 0 0 1-.55-.57v-2.76h-2.86a.52.52 0 0 1-.47-.57.57.57 0 0 1 .57-.55h2.77v-2.86a.53.53 0 0 1 .57-.47.57.57 0 0 1 .55.57v2.76h2.76a.58.58 0 0 1 .54.55z"/></svg>
